<?xml version='1.0' encoding='UTF-8'?>
<map version="1.0" orientation="orthogonal" width="35" height="24" tilewidth="16" tileheight="16">
 <properties>
  <property name="background_color" value="#000000" />
  <property name="zoneNumber" value="011" />
  <property name="zoneSource" value="rusarh/exolon-esl asm/data_zone_data.asm" />
  <property name="nextLevel" value="L01S13" />
 </properties>
 <tileset firstgid="1" name="tiles" tilewidth="16" tileheight="16">
  <image source="tiles.png" width="240" height="512" />
 </tileset>
 <tileset firstgid="481" name="rocks" tilewidth="16" tileheight="16">
  <image source="rocks.png" width="512" height="48" />
 </tileset>
 <tileset firstgid="577" name="generated_terrain" tilewidth="16" tileheight="16">
  <image source="generated_terrain.png" width="256" height="16" />
 </tileset>
 <imagelayer name="Original Static Scenery">
  <image source="zone_011_original.png" width="512" height="384" />
 </imagelayer>
 <layer name="Collision" width="35" height="24">
  <data encoding="csv">0,0,0,0,0,0,0,0,0,0,0,0,0,0,0,0,0,0,0,0,0,0,0,0,0,0,0,0,0,0,0,0,0,0,0,
0,0,0,0,0,0,0,0,0,0,0,0,0,0,0,0,0,0,0,0,0,0,0,0,0,0,0,0,0,0,0,0,0,0,0,
0,0,0,0,0,0,0,0,0,0,0,0,0,0,0,0,0,0,0,0,0,0,0,0,0,0,0,0,0,0,0,0,0,0,0,
0,0,0,0,0,0,0,0,0,0,0,0,0,0,0,0,0,0,0,0,0,0,0,0,0,0,0,0,0,0,0,0,0,0,0,
0,0,0,0,0,0,0,0,0,0,0,0,0,0,0,0,0,0,0,0,0,0,0,0,0,0,0,0,0,0,0,0,0,0,0,
0,0,0,0,0,0,0,0,0,0,0,0,0,0,0,0,0,0,0,0,0,0,0,0,0,0,0,0,0,0,0,0,0,0,0,
0,0,0,0,0,0,0,0,0,0,0,0,0,0,0,0,0,0,0,0,0,0,0,0,0,0,0,0,0,0,0,0,0,0,0,
0,0,0,0,0,0,0,0,0,0,0,0,0,0,0,0,0,0,0,0,0,0,0,0,0,0,0,0,0,0,0,0,0,0,0,
1,1,1,1,1,1,1,0,0,0,0,0,0,0,0,0,0,0,0,0,0,0,0,0,0,0,0,0,0,0,0,0,0,0,0,
0,0,0,0,0,0,0,0,0,0,0,0,0,0,0,0,0,0,0,0,0,0,0,0,0,0,0,0,0,0,0,0,0,0,0,
0,0,0,0,0,0,0,0,0,0,0,0,0,0,0,0,0,0,0,0,0,0,0,0,0,0,0,0,0,0,0,0,0,0,0,
0,0,0,0,0,1,1,1,0,0,0,0,0,0,0,0,0,0,0,0,0,0,0,0,0,0,0,0,0,0,0,0,0,0,0,
0,0,0,0,0,1,1,1,0,0,0,0,0,0,0,0,0,0,0,0,0,0,0,0,0,0,0,0,0,0,0,0,0,0,0,
0,0,0,0,0,1,1,1,0,0,0,0,0,0,0,0,0,0,0,0,0,0,0,0,0,0,0,0,0,0,0,0,0,0,0,
0,0,0,0,0,1,1,1,0,0,0,0,0,0,0,0,0,0,0,0,0,0,0,0,0,0,0,0,0,0,0,0,0,0,0,
0,0,0,0,0,0,0,0,0,0,0,0,0,0,0,0,1,1,1,1,0,0,0,0,0,0,0,0,0,0,0,0,0,0,0,
0,0,0,0,0,0,0,0,0,0,0,0,0,0,0,0,1,1,1,1,0,0,0,0,0,0,0,0,0,0,0,0,0,0,0,
0,0,0,0,0,0,0,0,0,0,0,0,0,0,0,0,1,1,1,1,0,0,0,0,0,0,0,0,0,0,0,0,0,0,0,
1,1,1,1,1,1,1,1,1,1,1,0,0,0,0,0,0,0,0,0,0,0,0,0,1,1,1,1,1,1,1,1,1,1,1,
1,1,1,1,1,1,1,1,1,1,1,0,0,0,0,0,0,0,0,0,0,0,0,0,1,1,1,1,1,1,1,1,1,1,1,
0,0,0,0,0,0,0,0,0,0,1,1,1,1,1,1,1,1,1,1,1,1,1,1,1,1,1,1,1,1,1,1,1,1,0,
0,0,0,0,0,0,0,0,0,0,1,0,0,0,0,0,0,0,0,0,0,0,0,0,1,0,0,0,0,0,0,0,0,0,0,
0,0,0,0,0,0,0,0,0,0,0,0,0,0,0,0,0,0,0,0,0,0,0,0,0,0,0,0,0,0,0,0,0,0,0,
0,0,0,0,0,0,0,0,0,0,0,0,0,0,0,0,0,0,0,0,0,0,0,0,0,0,0,0,0,0,0,0,0,0,0</data>
 </layer>
 <objectgroup name="Objects">
  <object id="1" name="vitorc" x="0" y="320" />
  <object id="2" name="radar" x="368" y="288" width="80" height="128">
   <properties>
    <property name="sourceBlock" value="blk_tower_dish" />
   </properties>
  </object>
  <object id="3" name="ammo_pack" x="320" y="320" width="32" height="32">
   <properties>
    <property name="sourceBlock" value="blk_box_white" />
   </properties>
  </object>
  <object id="4" name="grenade_pack" x="448" y="288" width="32" height="32">
   <properties>
    <property name="sourceBlock" value="blk_box_yellow" />
   </properties>
  </object>
  <object id="5" name="source_marker" x="256" y="240">
   <properties>
    <property name="sourceBlock" value="blk_beacon_base" />
    <property name="sourceY" value="15" />
    <property name="sourceX" value="16" />
   </properties>
  </object>
  <object id="6" name="source_marker" x="240" y="176">
   <properties>
    <property name="sourceBlock" value="blk_control_beacon" />
    <property name="sourceY" value="11" />
    <property name="sourceX" value="15" />
   </properties>
  </object>
 </objectgroup>
</map>