<?xml version='1.0' encoding='UTF-8'?>
<map version="1.0" orientation="orthogonal" width="35" height="24" tilewidth="16" tileheight="16">
 <properties>
  <property name="background_color" value="#000000" />
  <property name="zoneNumber" value="026" />
  <property name="zoneSource" value="rusarh/exolon-esl asm/data_zone_data.asm" />
  <property name="nextLevel" value="L02S03" />
 </properties>
 <tileset firstgid="1" name="tiles" tilewidth="16" tileheight="16">
  <image source="tiles.png" width="240" height="512" />
 </tileset>
 <tileset firstgid="481" name="rocks" tilewidth="16" tileheight="16">
  <image source="rocks.png" width="512" height="48" />
 </tileset>
 <tileset firstgid="577" name="generated_terrain" tilewidth="16" tileheight="16">
  <image source="generated_terrain.png" width="256" height="16" />
 </tileset>
 <imagelayer name="Original Static Scenery">
  <image source="zone_026_original.png" width="512" height="384" />
 </imagelayer>
 <layer name="Collision" width="35" height="24">
  <data encoding="csv">1,1,1,1,1,1,1,1,1,1,1,0,0,0,0,0,0,0,0,0,0,0,0,0,0,0,0,0,0,0,0,0,0,0,0,
0,0,0,0,0,0,0,0,0,0,0,0,0,0,0,0,0,0,0,0,0,0,0,0,0,0,0,0,0,0,0,0,0,0,0,
0,0,0,0,0,0,0,0,0,0,0,0,0,0,0,0,0,0,0,0,0,0,0,0,0,0,0,0,0,0,0,0,0,0,0,
0,0,0,0,0,1,1,1,1,1,0,0,0,0,0,0,0,0,0,0,0,0,0,0,0,0,0,0,0,0,0,0,0,0,0,
0,0,0,0,0,1,1,1,1,0,1,0,0,0,0,0,0,0,0,0,0,0,0,0,0,0,0,0,0,0,0,0,0,0,0,
0,0,0,0,0,1,1,1,1,0,0,1,0,0,0,0,0,0,0,0,0,0,0,0,0,0,0,0,0,0,0,0,0,0,0,
0,0,0,0,1,1,1,1,1,0,0,0,1,0,0,0,0,0,0,0,0,0,0,0,0,0,0,0,0,0,0,0,0,0,0,
0,0,0,1,0,0,0,0,0,0,0,0,0,1,0,0,0,0,0,0,0,0,0,0,0,0,0,0,0,0,0,0,0,0,0,
0,0,1,0,0,0,0,0,0,0,0,0,0,0,1,0,0,0,0,0,0,0,0,0,0,0,0,0,0,0,0,0,0,0,0,
0,0,0,0,0,0,0,0,0,0,0,0,0,0,0,0,0,0,0,0,0,0,0,0,0,0,0,0,0,0,0,0,0,0,0,
0,0,0,0,0,0,0,0,0,0,0,0,0,0,0,0,0,0,0,0,0,0,0,0,0,0,0,0,0,0,0,0,0,0,0,
0,0,0,0,0,0,0,0,0,0,0,0,0,0,0,0,0,0,0,0,0,0,0,0,0,0,0,0,0,0,0,0,0,0,0,
0,0,0,0,0,0,0,0,0,0,0,0,0,0,0,0,0,0,0,0,0,0,0,0,0,0,0,0,0,0,0,0,0,0,0,
0,0,0,0,0,0,0,0,0,0,0,0,0,0,0,0,0,0,0,0,0,0,0,0,0,0,0,0,0,0,0,0,0,0,0,
0,0,0,0,0,0,0,0,0,0,0,1,1,1,1,1,0,1,1,1,1,1,0,0,0,0,0,0,0,0,0,0,0,0,0,
0,0,0,0,0,0,0,0,0,0,0,1,1,1,1,1,0,1,1,1,1,1,0,0,0,0,0,0,0,0,0,0,0,0,0,
0,0,0,0,0,0,0,0,0,0,0,1,1,1,1,1,0,1,1,1,1,1,0,0,0,0,0,0,0,0,0,0,0,0,0,
0,0,0,0,0,0,0,0,0,0,0,0,0,0,0,0,0,0,0,0,0,0,0,0,0,0,0,0,0,0,0,0,0,0,0,
0,0,0,0,0,0,0,0,0,0,0,0,0,0,0,0,0,0,0,0,0,0,0,0,0,0,0,0,0,0,0,0,0,0,0,
1,1,1,1,1,1,1,1,1,1,1,1,1,1,1,1,1,1,1,1,1,1,1,1,1,1,1,1,1,1,1,1,0,0,0,
0,0,0,0,0,0,0,0,0,0,0,0,0,0,0,0,0,0,0,0,0,0,0,0,0,0,0,0,0,0,0,0,0,0,0,
0,0,0,0,0,0,0,0,0,0,0,0,0,0,0,0,0,0,0,0,0,0,0,0,0,0,0,0,0,0,0,0,0,0,0,
0,0,0,0,0,0,0,0,0,0,0,0,0,0,0,0,0,0,0,0,0,0,0,0,0,0,0,0,0,0,0,0,0,0,0,
0,0,0,0,0,0,0,0,0,0,0,0,0,0,0,0,0,0,0,0,0,0,0,0,0,0,0,0,0,0,0,0,0,0,0</data>
 </layer>
 <objectgroup name="Objects">
  <object id="1" name="vitorc" x="0" y="320" />
  <object id="2" name="source_marker" x="176" y="224">
   <properties>
    <property name="sourceBlock" value="blk_waggon" />
    <property name="sourceY" value="14" />
    <property name="sourceX" value="11" />
   </properties>
  </object>
  <object id="3" name="source_marker" x="272" y="224">
   <properties>
    <property name="sourceBlock" value="blk_waggon" />
    <property name="sourceY" value="14" />
    <property name="sourceX" value="17" />
   </properties>
  </object>
  <object id="4" name="mine" x="416" y="320" width="32" height="16">
   <properties>
    <property name="sourceBlock" value="blk_mine" />
   </properties>
  </object>
 </objectgroup>
</map>