<?xml version='1.0' encoding='UTF-8'?>
<map version="1.0" orientation="orthogonal" width="35" height="24" tilewidth="16" tileheight="16">
 <properties>
  <property name="background_color" value="#000000" />
  <property name="zoneNumber" value="053" />
  <property name="zoneSource" value="rusarh/exolon-esl asm/data_zone_data.asm" />
  <property name="nextLevel" value="L03S05" />
 </properties>
 <tileset firstgid="1" name="tiles" tilewidth="16" tileheight="16">
  <image source="tiles.png" width="240" height="512" />
 </tileset>
 <tileset firstgid="481" name="rocks" tilewidth="16" tileheight="16">
  <image source="rocks.png" width="512" height="48" />
 </tileset>
 <tileset firstgid="577" name="generated_terrain" tilewidth="16" tileheight="16">
  <image source="generated_terrain.png" width="256" height="16" />
 </tileset>
 <imagelayer name="Original Static Scenery">
  <image source="zone_053_original.png" width="512" height="384" />
 </imagelayer>
 <layer name="Collision" width="35" height="24">
  <data encoding="csv">0,0,0,0,0,0,0,0,0,0,0,0,0,0,0,0,0,0,0,0,0,0,0,0,0,0,0,0,0,0,0,0,0,0,0,
0,0,0,0,0,0,0,0,0,0,1,1,1,1,0,0,1,1,1,1,0,0,0,0,0,0,0,0,0,0,0,0,0,0,0,
0,0,0,0,0,0,0,0,0,0,1,1,1,1,0,0,1,1,1,1,0,0,0,0,0,0,0,0,0,0,0,0,0,0,0,
0,0,0,0,0,0,0,0,0,0,1,1,1,1,0,0,1,1,1,1,0,0,0,0,0,0,0,0,0,0,0,0,0,0,0,
0,0,0,0,0,0,0,0,0,0,0,0,0,0,0,0,0,0,0,0,0,0,0,0,0,0,0,0,0,0,0,0,0,0,0,
0,0,0,0,0,0,1,1,1,1,1,1,1,1,1,1,1,1,1,1,1,1,1,1,1,1,1,1,1,1,1,1,1,1,1,
0,0,0,0,0,0,0,0,0,0,0,0,0,0,0,0,0,0,0,0,0,0,0,0,0,0,0,0,0,0,0,0,0,0,0,
0,0,0,0,0,0,0,0,0,0,0,0,0,0,0,0,0,0,0,0,0,0,0,0,0,0,0,0,0,0,0,0,0,0,0,
0,0,0,0,0,0,1,1,1,0,0,0,0,0,0,0,0,0,0,0,0,0,0,1,1,1,0,0,0,0,0,0,0,0,0,
0,0,0,0,0,0,1,1,1,0,0,0,0,1,1,1,1,0,0,0,0,0,0,1,1,1,0,0,0,0,0,0,0,0,0,
0,0,0,0,0,0,1,1,1,0,0,0,0,1,1,1,1,0,0,0,0,0,0,1,1,1,0,0,0,0,0,0,0,0,0,
0,0,0,0,0,0,1,1,1,0,0,0,1,1,1,1,0,0,0,0,0,0,0,1,1,1,0,0,0,0,0,0,0,0,0,
0,0,0,0,0,0,0,0,0,0,0,0,1,1,1,1,0,0,0,0,0,0,0,0,0,0,0,0,0,0,0,0,0,0,0,
1,1,1,1,1,1,1,1,1,0,0,0,0,0,0,0,0,0,0,0,0,0,0,1,1,1,1,1,1,1,1,1,1,1,1,
1,1,1,1,1,1,1,1,1,0,0,0,0,0,0,0,0,0,0,0,0,0,0,1,1,1,1,1,1,1,1,1,1,1,1,
0,0,0,0,0,0,1,1,1,0,0,0,0,0,0,0,0,0,0,0,0,0,0,1,1,1,0,0,0,0,0,0,0,0,0,
0,0,0,0,0,0,1,1,1,0,0,0,0,0,0,0,0,0,0,0,0,0,0,1,1,1,0,0,0,0,0,0,0,0,0,
0,0,0,0,0,0,1,1,1,0,0,0,0,0,0,0,0,0,0,0,0,0,0,1,1,1,0,0,0,0,0,0,0,0,0,
0,0,0,0,0,0,1,1,1,0,0,0,0,0,0,0,0,0,0,0,0,0,0,1,1,1,0,0,0,0,0,0,0,0,0,
0,0,0,0,0,0,0,0,0,0,0,0,0,0,0,0,0,0,0,0,0,0,0,0,0,0,0,0,0,0,0,0,0,0,0,
1,1,1,1,1,1,1,1,1,1,1,1,1,1,1,1,1,1,1,1,1,1,1,0,0,0,0,0,0,0,0,0,0,0,0,
1,1,1,1,1,1,1,1,1,1,1,1,1,1,1,1,1,1,1,1,1,1,1,0,0,0,0,0,0,0,0,0,0,0,0,
0,0,0,0,0,0,0,0,0,0,0,0,0,0,0,0,0,0,0,0,0,0,0,0,0,0,0,0,0,0,0,0,0,0,0,
0,0,0,0,0,0,0,0,0,0,0,0,0,0,0,0,0,0,0,0,0,0,0,0,0,0,0,0,0,0,0,0,0,0,0</data>
 </layer>
 <objectgroup name="Objects">
  <object id="1" name="vitorc" x="0" y="320" />
  <object id="2" name="ammo_pack" x="224" y="320" width="32" height="32">
   <properties>
    <property name="sourceBlock" value="blk_box_white" />
   </properties>
  </object>
  <object id="3" name="grenade_pack" x="432" y="320" width="32" height="32">
   <properties>
    <property name="sourceBlock" value="blk_box_yellow" />
   </properties>
  </object>
  <object id="4" name="turret" x="208" y="224" width="96" height="80">
   <properties>
    <property name="sourceBlock" value="blk_gunMachine_TOP" />
    <property name="sourceY" value="9" />
    <property name="sourceX" value="13" />
   </properties>
  </object>
  <object id="5" name="source_marker" x="192" y="176">
   <properties>
    <property name="sourceBlock" value="blk_gunMachine_BOTTOM" />
    <property name="sourceY" value="11" />
    <property name="sourceX" value="12" />
   </properties>
  </object>
  <object id="6" name="source_marker" x="160" y="16">
   <properties>
    <property name="sourceBlock" value="blk_mushroom" />
    <property name="sourceY" value="1" />
    <property name="sourceX" value="10" />
   </properties>
  </object>
  <object id="7" name="source_marker" x="256" y="16">
   <properties>
    <property name="sourceBlock" value="blk_mushroom" />
    <property name="sourceY" value="1" />
    <property name="sourceX" value="16" />
   </properties>
  </object>
 </objectgroup>
</map>